!!!COM: Haydn, Franz Joseph
!!!CDT: 1732/03/31-1809/05/31
!!!CNT: Austrian
!!!OTL: Sonata No. 16 in D major
!!!SCT: Hob. XVI:14
!!!OMV: Mvmt. 2
!!!OMD: MENUETTO.
!!!ODT: 1760-1765
**kern	**kern	**dynam
*staff2	*staff1	*staff1/2
*>[A,A,B,B,C,C,D,D,A,B]	*>[A,A,B,B,C,C,D,D,A,B]	*>[A,A,B,B,C,C,D,D,A,B]
*>norep[A,B,C,D,A,B]	*>norep[A,B,C,D,A,B]	*>norep[A,B,C,D,A,B]
*>A	*>A	*>A
*clefF4	*clefG2	*clefG2
*k[f#c#]	*k[f#c#]	*k[f#c#]
*D:	*D:	*D:
*M3/4	*M3/4	*M3/4
*MM110	*MM110	*MM110
=1-	=1-	=1-
!	!	!LO:DY:rj
4r	(4A	mf
(4F#	[4d	.
4D	8.dL]	.
.	16f#Jk	.
=2	=2	=2
4E	8.f#L	.
.	16gJk	.
4A	2c#)	.
4G	.	.
=3	=3	=3
2F#)	16r	.
.	(16dLL	<
.	16e	.
.	16f#JJ	.
.	16gLL	.
.	16a	.
.	16b	.
.	16cc#JJ	.
(4D	16ddLL	.
.	16ee	.
.	16ff#	.
.	16ddJJ	[
=4	=4	=4
4E	4a	.
4c#	4gT	>
4d)	4f#)	]
=5	=5	=5
(4F#	8dd`L	.
.	[8ddJ	.
4G#	(16ddLL]	.
.	16ff#	.
.	16ee	.
.	16ddJJ	.
4A)	16ddLL	.
.	16cc#	.
.	16b	.
.	16aJJ)	.
!!LO:LB:g=z
=6	=6	=6
(4F#	8dd`L	.
.	[8ddJ	.
4G#	16ddLL]	.
.	(16ff#	.
.	16ee	.
.	16ddJJ	.
4A)	16ddLL	.
.	16cc#	.
.	16b	.
.	16aJJ	.
=7	=7	=7
(4D	(16g#LL)	.
.	16a	.
.	16f#	.
.	16dJJ	.
4E)	4c#	.
(4EE	4BT	.
.	16AqLL	.
.	16BqJJ	.
=8	=8	=8
4AA	2A)	.
4EE	.	.
4AAA)	4r	.
=9:|!|:	=9:|!|:	=9:|!|:
*>B	*>B	*>B
4r	[2.aa	f
*clefG2	*	*
(16ALL	.	.
16c#	.	.
16e	.	.
16aJJ	.	.
16BLL	.	.
16d	.	.
16e	.	.
16aJJ	.	.
=10	=10	=10
4c#)	4aa]	.
4r	(8aL	.
.	16bL	<
.	16cc#JJ	.
4r	16ddLL	.
.	16ee	.
.	16ff#	.
.	16gg#JJ	[
!!LO:LB:g=z
=11	=11	=11
4r	[2.aa)	.
(16ALL	.	.
16c#	.	.
16e	.	.
16aJJ	.	.
16BLL	.	.
16d	.	.
16e	.	.
16aJJ	.	.
=12	=12	=12
4c#)	4aa]	.
4r	(16aLL	<
.	16b	.
.	16cc#	.
.	16ddJJ	.
4r	16eeLL	.
.	16ff#	.
.	16ggn	.
.	16aaJJ	[
=13	=13	=13
(4d	16ff#LL	.
.	16dd	.
.	16cc#	.
.	16ddJJ	.
4f#	16aaLL	.
.	16ff#	.
.	16ee	.
.	16ddJJ	.
4g	16bbLL	.
.	16gg	.
.	16ff#	.
.	16eeJJ	.
=14	=14	=14
.	(4ddqq	>
4a	2cc#))	.
4e	.	]
4A)	4r	.
*clefF4	*	*
=15	=15	=15
4r	(4A	.
!	!	!LO:DY:a=2:rj
(4F#	[4d	mf
4D	8.dL]	.
.	16f#Jk	.
=16	=16	=16
4E	8.f#L	.
.	16gJk	.
4A	2c#)	.
4G	.	.
!!LO:LB:g=z
=17	=17	=17
2F#)	16r	.
.	(16dLL	.
.	16e	<
.	16f#JJ	.
.	16gLL	.
.	16a	.
.	16b	.
.	16cc#JJ	.
(4D	16ddLL	.
.	16ee	.
.	16ff#	.
.	16ddJJ	[
=18	=18	=18
4E	4a	.
4c#	4gT	.
4d)	4f#)	.
=19	=19	=19
(4B	8gg`L	.
.	[8ggJ	.
4c#	(16ggLL]	.
.	16bb	.
.	16aa	.
.	16ggJJ	.
4d)	16ggLL	.
.	16ff#	.
.	16ee	.
.	16ddJJ)	.
=20	=20	=20
(4B	8gg`L	.
.	[8ggJ	.
4c#	(16ggLL]	.
.	16bb	.
.	16aa	.
.	16ggJJ	.
4d)	16ggLL	.
.	16ff#	.
.	16ee	.
.	16ddJJ	.
=21	=21	=21
(4G	16cc#LL	.
.	16dd	.
.	16b	.
.	16gJJ	.
4A)	4f#	.
(4AA	4eT	.
.	16dqLL	.
.	16eqJJ	.
=22	=22	=22
4D/	2d)	p
4AA	.	.
4DD)	4r	.
!	!LO:TX:i:c:t=Fine.:rj	!
!!LO:LB:g=z
=23:|!;	=23:|!;	=23:|!;
*>C	*>C	*>C
!!!OMD: Trio
*clefG2	*	*
*k[b-]	*k[b-]	*k[b-]
*M3/4	*M3/4	*M3/4
*^	*	*
(8r	[2.d	8r	p
8fL	.	(8ddL	.
8a	.	8ff	.
8g	.	8ee	.
8f	.	8dd	.
8eJ	.	8cc#J	.
=24	=24	=24	=24
4f)	4d]	8dd`L)	.
.	.	8a`J	.
(4g	2d	(4b-T	.
4f)	.	4a)	.
*v	*v	*	*
*clefF4	*	*
=25	=25	=25
8r	2.g (2.ee	mf
(8dL	.	.
8e	.	.
8d	.	.
8c#	.	.
8AJ)	.	.
=26	=26	=26
8r	2.f 2.dd)	.
(8c#L	.	.
8d	.	.
8cn	.	.
8B-	.	.
8AJ	.	.
=27	=27	=27
4G)	8r	.
.	8ee 8gg	>
(4A	8r	.
.	8dd 8ff	.
4AA)	8r	.
.	8e 8cc#	.
=28	=28	=28
.	(4gqq/ 4eeqq/	]
(4D/	2f) 2dd	>
4AA	.	]
4DD)	4r	.
*clefG2	*	*
!!LO:LB:g=z
=29	=29	=29
*^	*	*
8r	[2.f	8r	.
(8aL	.	(8ffL	p
8b-	.	8gg	.
8a	.	8ff	.
8g	.	8ee	.
8aJ	.	8ffJ)	.
=30	=30	=30	=30
4dd	2.f]	8r	.
.	.	(4bb-	.
4b-	.	.	.
.	.	4gg	.
4g)	.	.	.
.	.	8ee))	.
=31	=31	=31	=31
8r	[2.f	8r	.
(8aL	.	(8ffL	.
8b-	.	8gg	.
8a	.	8ff	.
8g	.	8ee	.
8aJ	.	8ffJ)	.
=32	=32	=32	=32
4dd	2.f]	8r	.
.	.	(4bb-	.
4b-	.	.	.
.	.	4gg	.
4g	.	.	.
.	.	8ee	.
=33	=33	=33	=33
4a	4f)	)8ff`L	.
.	.	8ccc`J	.
*clefF4	*	*	*
8r	2ryy	(2ee-T	mf
8F` 8A`L	.	.	.
8G` 8B-`	.	.	.
8A` 8c`J	.	.	.
*v	*v	*	*
.	dd16qLL	.
.	ee-16qJJ	.
=34	=34	=34
4B- 4d	8dd`L)	.
.	8bb-` 8ddd`	.
(4c	8aa` 8ccc`	.
.	8gg` 8bb-`	.
4C)	8ff` 8aa`	.
.	8een` 8gg`J	.
=35	=35	=35
4F	8ff`L	.
.	8ccc`J	.
8r	(2ee-	.
8F` 8A`L	.	.
8G` 8B-`	.	.
8A` 8c`J	.	.
.	dd16qLL	.
.	ee-16qJJ	.
!!LO:LB:g=z
=36	=36	=36
4B- 4d	8dd`L)	.
.	8bb-` 8ddd`	.
(4c	8aa` 8ccc`	.
.	8gg` 8bb-`	.
4C)	8ff` 8aa`	.
.	8een` 8gg`J	.
=37	=37	=37
(4F	2ff	.
4C	.	.
4FF)	4r	.
=38:|!|:	=38:|!|:	=38:|!|:
*>D	*>D	*>D
*^	*	*
8re	[2.F	8r	.
(8AL	.	(8fL	p
8c	.	8a	.
8B-	.	8g)	.
8A	.	8f	.
8GJ	.	8eJ	.
=39	=39	=39	=39
4A))	4F]	8f`L	.
.	.	8c`J	.
(4c	4F#	(4e-T	.
4B-)	4G	4d)	.
=40	=40	=40	=40
8r	[2.G	8r	.
(8B-L	.	(8gL	.
8d	.	8b-	.
8c	.	8a	.
8B-	.	8g	.
8AJ	.	8f#J	.
=41	=41	=41	=41
()4B-	4G]	8g`L)	.
.	.	8d`J	.
4d	(4G#	(4fnT	.
4c)	4A)	4en)	.
*v	*v	*	*
*clefG2	*	*
!!LO:LB:g=z
=42	=42	=42
*^	*	*
8r	2.A	8r	.
(8fL	.	(8aaL	mf
8g	.	8bb-	.
8f	.	8aa	.
8e	.	8gg#	.
8fJ)	.	8aaJ)	.
=43	=43	=43	=43
8r	2.A	8r	.
8eL	.	(8ggnL	.
(8f	.	8aa	.
8e	.	8gg	.
8d#	.	8ff#	.
8eJ)	.	8ggJ)	.
=44	=44	=44	=44
(4dn	2.B-	8r	.
.	.	(8ffnL	>
()2g	.	8ee	.
.	.	8dd	.
.	.	8cc#	.
.	.	8ddJ	.
*v	*v	*	*
=45	=45	=45
8a`L)	4cc#)	]
(8A	.	.
8a	4r	.
8g	.	.
8f	4r	.
8eJ	.	.
=46	=46	=46
*^	*	*
8r	[2.d)	8r	.
(8fL	.	(8ddL	p
8a	.	8ff	.
8g	.	8ee	.
8f	.	8dd	.
8eJ	.	8cc#J	.
=47	=47	=47	=47
4f)	4d]	)8dd`L	.
.	.	8a`J	.
(4g	2d	(4b-T/	.
4f)	.	()4a	.
*v	*v	*	*
*clefF4	*	*
=48	=48	=48
8r	2.b- (2.gg	mf
((8dL	.	.
8e	.	.
8d	.	.
8c#	.	.
8AJ)	.	.
!!LO:LB:g=z
=49	=49	=49
8r	2.a 2.ff)	.
(8c#L	.	.
8d	.	.
8cn	.	.
8B-	.	.
8AJ	.	.
=50	=50	=50
4G)	8r	.
.	8ee 8gg	>
(4A	8r	.
.	8dd 8ff	.
4AA)	8r	.
.	8e 8cc#	]]
=51	=51	=51
4D	8f` 8dd`L	.
.	8aa`J	.
8r	(2ccnT	mf
8D` 8F#`L	.	.
8E` 8G`	.	.
8F#` 8A`J	.	.
.	b-16qLL	.
.	cc16qJJ	.
=52	=52	=52
4G	8b-`L)	.
.	8gg` 8bb-	.
(4A	8ff` 8aa`	.
.	8ee` 8gg	.
4AA)	8dd` 8ff`	.
.	8cc#` 8eeJ	.
=53	=53	=53
4D	8dd`L	.
.	8aa`J	.
8r	(2ccnT	.
8D` 8F#`L	.	.
8E` 8G`	.	.
8F#` 8A`J	.	.
.	b-16qLL	.
.	cc16qJJ	.
=54	=54	=54
4G	8b-`L)	.
.	8gg` 8bb-`	.
(4A	8ff` 8aa`	.
.	8ee` 8gg`	.
4AA)	8dd` 8ff`	.
.	8cc#` 8ee`J	.
=55	=55	=55
(4D/	4dd	.
4AA	4r	.
4DD)	4r	.
!!LO:TX:b:rj:i:t=Menuetto D.C.
==:|!	==:|!	==:|!
*-	*-	*-
!!!SMS: Universal Edition 1, Haydn Piano Sonatas, Vol. 1, No. 3
!!!ONB: Stich und Druck von Jos. Eberle  Co. Wien VII. Seidengasse 3-9
!!!ENC: Craig Stuart Sapp
!!!END: 2009/03/05
!!!EED: Craig Stuart Sapp
!!!EEV: 2009/03/05
